Obsidian-Light/actions/scalable/system-run-symbolic.svg

<svg height="16" width="16" xmlns="http://www.w3.org/2000/svg"><path d="m7.0334283 1.000039c-.275485 0-.498547.2285261-.498547.508718v.986916c-.4925824.131243-.963247.329482-1.3938891.5799401l-.7020336-.702032c-.0990649-.0990601-.2177308-.1515311-.3459287-.1526161-.1281975-.0011-.2587053.04505-.3561028.142441l-1.3735427 1.373541c-.1947947.194796-.1879513.503908.0101617.702034l.7020332.7020311c-.25046.4306419-.448699.9013079-.5799453 1.3938909h-.9869146c-.2801917 0-.5087194.223063-.5087194.4985463v1.9331329c0 .2754827.2285277.4985463.5087196.4985463h.9869146c.1312463.4925837.3294855.9632495.5799416 1.3938895l-.7020335.702033c-.1981255.198126-.2049692.507235-.010162.702032l1.3735426 1.373543c.1947946.194796.5039058.18795.7020316-.01015l.7020374-.702057c.4306422.250458.9013068.448698 1.3938892.579941v.986916c0 .280191.2230619.508719.498547.508719h1.9331323c.2754842 0 .4985452-.228528.4985452-.508719v-.986916c.492583-.131243.9632494-.329483 1.3938914-.579941l.702035.702035c.198123.198123.507235.204969.702031.01015l1.373541-1.373544c.194795-.194796.18795-.503906-.01015-.702032l-.702029-.702035c.250457-.43064.448697-.901306.57994-1.3938898h.986917c.280189.0000213.508718-.2230407.508718-.4985241v-1.9331338c0-.2754822-.228529-.4985453-.508718-.4985453h-.986917c-.131243-.4925819-.329483-.9632479-.57994-1.3938909l.702034-.7020321c.198123-.1981249.204969-.5072359.01015-.7020319l-1.37354-1.3735441c-.194801-.1947939-.503909-.18795-.702035.01015l-.702036.7020341c-.430642-.2504591-.901307-.4486981-1.39389-.5799421v-.986914c0-.2801939-.223061-.50872-.4985433-.50872h-1.9331332zm.9665662 4.883704c1.1681845 0 2.1162735.94809 2.1162735 2.1162723 0 1.168184-.948092 2.1162717-2.1162735 2.1162717-1.1681817 0-2.1162724-.9480877-2.1162724-2.1162717 0-1.1681823.9480907-2.1162723 2.1162724-2.1162723z" display="block" fill="#bebebe"/></svg>

<?xml version="1.0" encoding="UTF-8" standalone="no"?>
<!-- Created with Inkscape (http://www.inkscape.org/) -->

<svg
   xmlns:dc="http://purl.org/dc/elements/1.1/"
   xmlns:cc="http://creativecommons.org/ns#"
   xmlns:rdf="http://www.w3.org/1999/02/22-rdf-syntax-ns#"
   xmlns:svg="http://www.w3.org/2000/svg"
   xmlns="http://www.w3.org/2000/svg"
   xmlns:xlink="http://www.w3.org/1999/xlink"
   xmlns:sodipodi="http://sodipodi.sourceforge.net/DTD/sodipodi-0.dtd"
   xmlns:inkscape="http://www.inkscape.org/namespaces/inkscape"
   width="16"
   height="16"
   id="svg2"
   sodipodi:version="0.32"
   inkscape:version="0.48.1 r9760"
   version="1.0"
   sodipodi:docname="system-run.svg"
   inkscape:output_extension="org.inkscape.output.svg.inkscape">
  <defs
     id="defs4">
    <inkscape:perspective
       sodipodi:type="inkscape:persp3d"
       inkscape:vp_x="0 : 11 : 1"
       inkscape:vp_y="0 : 1000 : 0"
       inkscape:vp_z="22 : 11 : 1"
       inkscape:persp3d-origin="11 : 7.3333333 : 1"
       id="perspective23" />
    <linearGradient
       id="ShadowGradient">
      <stop
         style="stop-color:#000000;stop-opacity:1;"
         offset="0"
         id="stop3393" />
      <stop
         style="stop-color:#000000;stop-opacity:0;"
         offset="1"
         id="stop3395" />
    </linearGradient>
    <linearGradient
       id="StandardGradient">
      <stop
         style="stop-color:#000000;stop-opacity:0.86274511;"
         offset="0"
         id="stop3389" />
      <stop
         style="stop-color:#000000;stop-opacity:0.47058824;"
         offset="1"
         id="stop3391" />
    </linearGradient>
    <linearGradient
       inkscape:collect="always"
       xlink:href="#StandardGradient"
       id="linearGradient3381"
       x1="9.9375"
       y1="3"
       x2="9.9375"
       y2="19.017569"
       gradientUnits="userSpaceOnUse" />
    <linearGradient
       inkscape:collect="always"
       xlink:href="#StandardGradient"
       id="linearGradient3782"
       x1="9.75"
       y1="5"
       x2="9.75"
       y2="19.055693"
       gradientUnits="userSpaceOnUse"
       gradientTransform="translate(0,-1)" />
    <linearGradient
       inkscape:collect="always"
       xlink:href="#StandardGradient"
       id="linearGradient2400"
       gradientUnits="userSpaceOnUse"
       gradientTransform="translate(-9,10)"
       x1="9.75"
       y1="5"
       x2="9.75"
       y2="19.055693" />
    <linearGradient
       inkscape:collect="always"
       xlink:href="#StandardGradient"
       id="linearGradient3174"
       gradientUnits="userSpaceOnUse"
       gradientTransform="matrix(0.7071068,0.7071068,-0.7071068,0.7071068,0.8856249,4.1536343)"
       x1="9.75"
       y1="5"
       x2="9.75"
       y2="19.055693" />
    <linearGradient
       inkscape:collect="always"
       xlink:href="#StandardGradient"
       id="linearGradient3178"
       gradientUnits="userSpaceOnUse"
       gradientTransform="matrix(0,1,-1,0,12.009822,7.0098219)"
       x1="9.75"
       y1="5"
       x2="9.75"
       y2="19.055693" />
    <linearGradient
       inkscape:collect="always"
       xlink:href="#StandardGradient"
       id="linearGradient3182"
       gradientUnits="userSpaceOnUse"
       gradientTransform="matrix(-0.7071068,0.7071068,-0.7071068,-0.7071068,17.856188,16.895447)"
       x1="9.75"
       y1="5"
       x2="9.75"
       y2="19.055693" />
    <linearGradient
       inkscape:collect="always"
       xlink:href="#StandardGradient"
       id="linearGradient3186"
       gradientUnits="userSpaceOnUse"
       gradientTransform="matrix(-1,0,0,-1,15,28.019644)"
       x1="9.75"
       y1="5"
       x2="9.75"
       y2="19.055693" />
    <linearGradient
       inkscape:collect="always"
       xlink:href="#StandardGradient"
       id="linearGradient3190"
       gradientUnits="userSpaceOnUse"
       gradientTransform="matrix(-0.7071068,-0.7071068,0.7071068,-0.7071068,5.1143752,33.866009)"
       x1="9.75"
       y1="5"
       x2="9.75"
       y2="19.055693" />
    <linearGradient
       inkscape:collect="always"
       xlink:href="#StandardGradient"
       id="linearGradient3194"
       gradientUnits="userSpaceOnUse"
       gradientTransform="matrix(0,-1,1,0,-6.0098215,31.009821)"
       x1="9.75"
       y1="5"
       x2="9.75"
       y2="19.055693" />
    <linearGradient
       inkscape:collect="always"
       xlink:href="#StandardGradient"
       id="linearGradient3198"
       gradientUnits="userSpaceOnUse"
       gradientTransform="matrix(0.7071068,-0.7071068,0.7071068,0.7071068,-11.856186,21.124197)"
       x1="9.75"
       y1="5"
       x2="9.75"
       y2="19.055693" />
    <linearGradient
       inkscape:collect="always"
       xlink:href="#StandardGradient"
       id="linearGradient3224"
       gradientUnits="userSpaceOnUse"
       gradientTransform="matrix(0.7071068,0.7071068,-0.7071068,0.7071068,11.292893,-6.263456)"
       x1="9.75"
       y1="5"
       x2="9.75"
       y2="19.055693" />
    <linearGradient
       inkscape:collect="always"
       xlink:href="#StandardGradient"
       id="linearGradient2407"
       gradientUnits="userSpaceOnUse"
       gradientTransform="translate(-22,-5)"
       x1="9.75"
       y1="5"
       x2="9.75"
       y2="19.055693" />
    <linearGradient
       inkscape:collect="always"
       xlink:href="#StandardGradient"
       id="linearGradient3228"
       x1="6.7010484"
       y1="1"
       x2="6.7010484"
       y2="15.001111"
       gradientUnits="userSpaceOnUse" />
    <inkscape:perspective
       id="perspective3648"
       inkscape:persp3d-origin="0.5 : 0.33333333 : 1"
       inkscape:vp_z="1 : 0.5 : 1"
       inkscape:vp_y="0 : 1000 : 0"
       inkscape:vp_x="0 : 0.5 : 1"
       sodipodi:type="inkscape:persp3d" />
    <inkscape:perspective
       id="perspective2876"
       inkscape:persp3d-origin="0.5 : 0.33333333 : 1"
       inkscape:vp_z="1 : 0.5 : 1"
       inkscape:vp_y="0 : 1000 : 0"
       inkscape:vp_x="0 : 0.5 : 1"
       sodipodi:type="inkscape:persp3d" />
    <linearGradient
       y2="45.017357"
       x2="20.758585"
       y1="1"
       x1="20.758585"
       gradientTransform="matrix(0.41860332,0,0,0.41860332,0.9535131,1.3721447)"
       gradientUnits="userSpaceOnUse"
       id="linearGradient4427"
       xlink:href="#StandardGradient-9"
       inkscape:collect="always" />
    <linearGradient
       id="StandardGradient-9">
      <stop
         style="stop-color:#000000;stop-opacity:0.86274511;"
         offset="0"
         id="stop3389-8" />
      <stop
         style="stop-color:#000000;stop-opacity:0.47058824;"
         offset="1"
         id="stop3391-3" />
    </linearGradient>
    <linearGradient
       inkscape:collect="always"
       xlink:href="#StandardGradient-9"
       id="linearGradient2891"
       gradientUnits="userSpaceOnUse"
       gradientTransform="matrix(0.27906888,0,0,0.27906888,1.3023421,2.5814282)"
       x1="20.758585"
       y1="1"
       x2="20.758585"
       y2="45.017357" />
    <linearGradient
       inkscape:collect="always"
       xlink:href="#StandardGradient-9"
       id="linearGradient2893"
       gradientUnits="userSpaceOnUse"
       gradientTransform="matrix(0.27906888,0,0,0.27906888,1.3023421,1.5814282)"
       x1="20.758585"
       y1="1"
       x2="20.758585"
       y2="45.017357" />
    <linearGradient
       inkscape:collect="always"
       xlink:href="#StandardGradient-9"
       id="linearGradient3670"
       gradientUnits="userSpaceOnUse"
       gradientTransform="matrix(0.27906888,0,0,0.27906888,1.3023421,2.5814282)"
       x1="20.758585"
       y1="1"
       x2="20.758585"
       y2="45.017357" />
    <linearGradient
       inkscape:collect="always"
       xlink:href="#StandardGradient-9"
       id="linearGradient3674"
       gradientUnits="userSpaceOnUse"
       gradientTransform="matrix(0.27906888,0,0,0.27906888,1.3023421,1.5814282)"
       x1="20.758585"
       y1="1"
       x2="20.758585"
       y2="45.017357" />
    <linearGradient
       inkscape:collect="always"
       xlink:href="#StandardGradient-9"
       id="linearGradient3679"
       gradientUnits="userSpaceOnUse"
       gradientTransform="matrix(0.27906888,0,0,0.27906888,-18.697658,1.5814282)"
       x1="20.758585"
       y1="1"
       x2="20.758585"
       y2="45.017357" />
    <clipPath
       clipPathUnits="userSpaceOnUse"
       id="clipPath3686">
      <path
         style="fill:#ff00ff;fill-opacity:1;stroke:none;display:inline"
         d="m -20,0 0,16 16,0 0,-16 -16,0 z m 7.15625,2 1.6875,0 c 0.236127,0 0.40625,0.1973338 0.40625,0.4375 l 0,0.84375 c 0.422214,0.1124949 0.818378,0.2853208 1.1875,0.5 l 0.625,-0.59375 c 0.169822,-0.1698 0.426778,-0.1982162 0.59375,-0.03125 l 1.1875,1.1875 c 0.166988,0.166968 0.13857,0.4239286 -0.03125,0.59375 l -0.59375,0.625 c 0.214677,0.3691225 0.387506,0.7652869 0.5,1.1875 l 0.84375,0 C -6.197338,6.75 -6,6.9201224 -6,7.15625 l 0,1.6875 C -6,9.0798786 -6.197348,9.2500183 -6.4375,9.25 l -0.84375,0 c -0.112494,0.4222147 -0.285323,0.81838 -0.5,1.1875 l 0.59375,0.625 c 0.1698,0.169822 0.198217,0.426782 0.03125,0.59375 l -1.1875,1.1875 c -0.166968,0.166988 -0.42393,0.13857 -0.59375,-0.03125 l -0.625,-0.59375 c -0.369122,0.214678 -0.765286,0.387506 -1.1875,0.5 l 0,0.84375 c 0,0.240164 -0.170121,0.4375 -0.40625,0.4375 l -1.6875,0 C -13.07988,14 -13.25,13.802664 -13.25,13.5625 l 0,-0.84375 c -0.422213,-0.112494 -0.818378,-0.285322 -1.1875,-0.5 l -0.625,0.59375 c -0.169822,0.1698 -0.426783,0.198218 -0.59375,0.03125 l -1.1875,-1.1875 c -0.166988,-0.166968 -0.138572,-0.423928 0.03125,-0.59375 l 0.59375,-0.625 c -0.214677,-0.36912 -0.387503,-0.7652854 -0.5,-1.1875 l -0.84375,0 C -17.802664,9.25 -18,9.079878 -18,8.84375 l 0,-1.6875 C -18,6.9201214 -17.802654,6.75 -17.5625,6.75 l 0.84375,0 c 0.112497,-0.422214 0.28532,-0.8183783 0.5,-1.1875 l -0.59375,-0.625 c -0.169801,-0.1698223 -0.198217,-0.426782 -0.03125,-0.59375 l 1.1875,-1.1875 c 0.08348,-0.083478 0.202616,-0.1259428 0.3125,-0.125 0.109883,9.3e-4 0.19634,0.071341 0.28125,0.15625 l 0.625,0.59375 c 0.369122,-0.2146783 0.765286,-0.387506 1.1875,-0.5 l 0,-0.84375 C -13.25,2.1973355 -13.07988,2 -12.84375,2 z M -12,6.1875 c -1.001298,0 -1.8125,0.8112009 -1.8125,1.8125 0,1.0013006 0.811202,1.8125 1.8125,1.8125 1.001299,0 1.8125,-0.8111994 1.8125,-1.8125 0,-1.0012991 -0.811199,-1.8125 -1.8125,-1.8125 z"
         id="path3688" />
    </clipPath>
    <linearGradient
       inkscape:collect="always"
       xlink:href="#StandardGradient-9"
       id="linearGradient3987"
       gradientUnits="userSpaceOnUse"
       gradientTransform="matrix(0.27906888,0,0,0.27906888,1.3023421,1.5814282)"
       x1="20.758585"
       y1="1"
       x2="20.758585"
       y2="45.017357" />
    <linearGradient
       inkscape:collect="always"
       xlink:href="#StandardGradient-9"
       id="linearGradient3991"
       gradientUnits="userSpaceOnUse"
       gradientTransform="matrix(0.27906888,0,0,0.27906888,1.3023421,1.5814282)"
       x1="24.000017"
       y1="1.4998871"
       x2="20.758585"
       y2="45.017357" />
  </defs>
  <sodipodi:namedview
     id="base"
     pagecolor="#ffffff"
     bordercolor="#e7e7e7"
     borderopacity="1"
     inkscape:pageopacity="0.0"
     inkscape:pageshadow="2"
     inkscape:zoom="24.711919"
     inkscape:cx="-7.6903318"
     inkscape:cy="5.4569417"
     inkscape:document-units="px"
     inkscape:current-layer="layer1"
     showgrid="true"
     inkscape:showpageshadow="false"
     showguides="true"
     inkscape:guide-bbox="true"
     inkscape:window-width="1920"
     inkscape:window-height="1028"
     inkscape:window-x="0"
     inkscape:window-y="25"
     inkscape:window-maximized="1">
    <sodipodi:guide
       orientation="1,0"
       position="0,112"
       id="guide2383" />
    <sodipodi:guide
       orientation="0,1"
       position="78.156291,0"
       id="guide2389" />
    <inkscape:grid
       type="xygrid"
       id="grid3672"
       visible="true"
       enabled="true" />
    <sodipodi:guide
       orientation="1,0"
       position="22.008699,4.1542523"
       id="guide2950" />
    <sodipodi:guide
       orientation="0,1"
       position="11.22532,22.008699"
       id="guide2952" />
  </sodipodi:namedview>
  <metadata
     id="metadata7">
    <rdf:RDF>
      <cc:Work
         rdf:about="">
        <dc:format>image/svg+xml</dc:format>
        <dc:type
           rdf:resource="http://purl.org/dc/dcmitype/StillImage" />
      </cc:Work>
    </rdf:RDF>
  </metadata>
  <g
     inkscape:label="Calque 1"
     inkscape:groupmode="layer"
     id="layer1">
    <path
       d="m 7.0334283,1.000039 c -0.275485,0 -0.498547,0.2285261 -0.498547,0.508718 l 0,0.986916 C 6.0422989,2.626916 5.5716343,2.825155 5.1409922,3.0756131 L 4.4389586,2.3735811 C 4.3398937,2.274521 4.2212278,2.22205 4.0930299,2.220965 3.9648324,2.219865 3.8343246,2.266015 3.7369271,2.363406 L 2.3633844,3.736947 C 2.1685897,3.931743 2.1754331,4.240855 2.3735461,4.438981 L 3.0755793,5.1410121 C 2.8251193,5.571654 2.6268803,6.04232 2.495634,6.534903 l -0.9869146,0 C 1.2285277,6.534903 1,6.757966 1,7.0334493 l 0,1.9331329 c 0,0.2754827 0.2285277,0.4985463 0.5087196,0.4985463 l 0.9869146,0 c 0.1312463,0.4925837 0.3294855,0.9632495 0.5799416,1.3938895 l -0.7020335,0.702033 c -0.1981255,0.198126 -0.2049692,0.507235 -0.010162,0.702032 l 1.3735426,1.373543 c 0.1947946,0.194796 0.5039058,0.18795 0.7020316,-0.01015 l 0.7020374,-0.702057 c 0.4306422,0.250458 0.9013068,0.448698 1.3938892,0.579941 l 0,0.986916 c 0,0.280191 0.2230619,0.508719 0.498547,0.508719 l 1.9331323,0 c 0.2754842,0 0.4985452,-0.228528 0.4985452,-0.508719 l 0,-0.986916 c 0.492583,-0.131243 0.9632494,-0.329483 1.3938914,-0.579941 l 0.702035,0.702035 c 0.198123,0.198123 0.507235,0.204969 0.702031,0.01015 l 1.373541,-1.373544 c 0.194795,-0.194796 0.18795,-0.503906 -0.01015,-0.702032 l -0.702029,-0.702035 c 0.250457,-0.43064 0.448697,-0.901306 0.57994,-1.3938898 l 0.986917,0 C 14.771471,9.4651245 15,9.2420625 15,8.9665791 L 15,7.0334453 C 15,6.7579631 14.771471,6.5349 14.491282,6.5349 l -0.986917,0 C 13.373122,6.0423181 13.174882,5.5716521 12.924425,5.1410091 L 13.626459,4.438977 c 0.198123,-0.1981249 0.204969,-0.5072359 0.01015,-0.7020319 L 12.263069,2.363401 C 12.068268,2.1686071 11.75916,2.175451 11.561034,2.373551 L 10.858998,3.0755851 C 10.428356,2.825126 9.957691,2.626887 9.465108,2.495643 l 0,-0.986914 c 0,-0.2801939 -0.223061,-0.50872 -0.4985433,-0.50872 l -1.9331332,0 z m 0.9665662,4.883704 c 1.1681845,0 2.1162735,0.94809 2.1162735,2.1162723 0,1.168184 -0.948092,2.1162717 -2.1162735,2.1162717 -1.1681817,0 -2.1162724,-0.9480877 -2.1162724,-2.1162717 0,-1.1681823 0.9480907,-2.1162723 2.1162724,-2.1162723 z"
       id="rect3267"
       style="fill:#bebebe;fill-opacity:1;fill-rule:nonzero;stroke:none;stroke-width:1;marker:none;visibility:visible;display:block;overflow:visible;enable-background:accumulate"
       inkscape:connector-curvature="0" />
  </g>
</svg>
